X: 19409
T: Jackie Donnan's
R: mazurka
M: 3/4
K: Dmajor
|:A>F D2 D2|F>A d2 d2|c>d e2 e>d|c>d E2- E>G|
(3GFE D2 D2|F>A d2 d2|c>d e2 e>f|g>e d4:|
|:a>f d2 d>e|f>g B2 B2|A>c e2 e>f|g>e a2- a>f|
a>f d2 d>e|f>g B2 B2|A>c e2 e>f|g>e d4:|

